X:219
T:Master Crowley's No. 1
Z: id:dc-reel-200
M:C
L:1/8
K:D Minor
C|A,DD2 A,DED|DCC2 G,CEC|A,DDC B,DDC|EGcG EDDC|!
A,DD2 A,DED|DCC2 G,CEC|A,DDC B,3D|EGcG EDD:|!
C|Da^ga efdf|ecgc acge|da^ga efd=B|cAGE EDDC|!
Da^ga efdf|ecgc acgc|DEFG AGAc|GECD EDD:|!

